X: 42657
T: Whisky In The Dark
R: reel
M: 4/4
K: Edorian
E3A B2 AF|EFAd BAFE|DAdA EAdA|GAdA FAdA|
E3A B2 AF|EFAd BABd|ABde fedB|AFDF E4:|
e3c Acec|agfe gfec|d3B GBdB|gfed fedc|
[1e3c dcBd|cBAc BAGB|AGFA GFED|FEDF E4:|
[2e3c Acec|^Gcec =Gcec|FAdA _FAdA|DAdA ^DA=cA||

